static/img/svg/left-arrow-circle.svg

<svg xmlns="http://www.w3.org/2000/svg" width="24" height="24" viewBox="0 0 24 24"><path d="M12 2C6.486 2 2 6.486 2 12s4.486 10 10 10 10-4.486 10-10S17.514 2 12 2zm0 18c-4.411 0-8-3.589-8-8s3.589-8 8-8 8 3.589 8 8-3.589 8-8 8z"/><path d="M12 8l-4 4 4 4v-3h4v-2h-4z"/></svg>

<svg xmlns="http://www.w3.org/2000/svg" width="24" height="24" viewBox="0 0 24 24"><path d="M12,2C6.486,2,2,6.486,2,12s4.486,10,10,10s10-4.486,10-10S17.514,2,12,2z M12,20c-4.411,0-8-3.589-8-8s3.589-8,8-8 s8,3.589,8,8S16.411,20,12,20z"/><path d="M12 8L8 12 12 16 12 13 16 13 16 11 12 11z"/></svg>
